NotoEmoji/emoji_u1f948.svg

<svg enable-background="new 0 0 128 128" viewBox="0 0 128 128" xmlns="http://www.w3.org/2000/svg"><path d="m69.09 4.24c-1.08.96-9.48 17.63-9.48 17.63l-6.25 25.21 24.32-2.23s20.23-37.62 20.64-38.49c.73-1.58 1.12-2.23-1.67-2.23-2.79-.01-26.55-.79-27.56.11z" fill="#176cc7"/><path d="m81.68 43.29c-1.21-.65-36.85-1.21-37.69 0-.76 1.1-.33 6.87-.04 7.56.52 1.2 12.03 6.43 12.03 6.43l-.22 2.38s.94.24 7.63.24 8.01-.34 8.01-.34l.02-2.15s10.36-5.04 10.88-5.74c.44-.58.59-7.73-.62-8.38zm-10.61 9.12s.33-1.47-.36-1.81c-.69-.35-12.53-.19-13.47-.14s-.94 1.73-.94 1.73l-7.6-4.53v-.74l28.3.2.05.84z" fill="#cecdd2"/><path d="m59.26 51.17c-.94 0-1.48.98-1.48 2.67 0 1.58.54 2.91 1.73 2.81.98-.08 1.32-1.58 1.23-2.91-.09-1.58-.29-2.57-1.48-2.57z" fill="#fdffff"/><path d="m28.97 91.89c0 23.96 22.05 34.13 36.46 33.7 16.79-.5 34.51-13.24 33.36-36.1-1.09-21.66-19.46-31.29-35.24-31.18-18.34.14-34.58 12.65-34.58 33.58z" fill="#cecdd2"/><path d="m64.53 121.13c-.25 0-.51 0-.76-.01-7.5-.25-14.91-3.41-20.33-8.66-5.8-5.62-8.98-13.22-8.94-21.39.09-19.95 17.53-29.2 29.36-29.2h.1c16.03.07 29.19 12.53 29.56 29.42.16 7.52-2.92 15.41-8.96 21.35-5.64 5.53-13.12 8.49-20.03 8.49zm-.69-55.94c-10.61 0-26.3 8.68-26.34 25.88-.03 12.86 9.93 26.08 26.52 26.64 6.32.2 12.83-2.22 18.09-7.39 5.46-5.37 8.53-12.29 8.42-18.99-.26-14.53-12.14-26.09-26.56-26.16-.02 0-.1.02-.13.02z" fill="#9b9b9d"/><path d="m58.09 61.47c-.69-.95-7.76-.68-15.37 5.87-7.56 6.51-8.69 13.71-7.33 14.09 1.55.43 3.44-6.53 9.97-12.38 6-5.35 14.1-5.69 12.73-7.58z" fill="#fefffa"/><path d="m87.88 87.72c-2.41.34.09 7.56-5.5 15.64-4.85 7.01-10.35 9.55-9.71 11.09.86 2.06 9.67-3.07 13.75-11.43 3.69-7.56 3.25-15.55 1.46-15.3z" fill="#fefffa"/><path d="m25.51 3.72c-.63.58 23.46 43.48 23.46 43.48s4.04.52 13.06.6 13.49-.52 13.49-.52-18.73-43.13-19.85-43.56c-.55-.22-7.97-.3-15.22-.38-7.26-.09-14.34-.18-14.94.38z" fill="#2e9df4"/><path d="m56.85 86.35c1.04.01 1.97-1.4 2.83-2.26 1.83-1.84 3.75-3.3 5.94-1.32 5.38 4.89-5.42 9.85-9.52 16.63-3.06 5.06-3.68 8.95-2.83 9.99s21.54.99 21.82.47.57-7.45.09-7.78-10.65-.14-10.65-.14.85-1.98 4.34-5c3.83-3.31 6.9-7.86 6.08-13.24-1.7-11.12-12.9-11.53-17.75-7.66-4.73 3.77-3.71 10.27-.35 10.31z" fill="#9b9b9d"/></svg>

<?xml version="1.0" encoding="utf-8"?>
<!-- Generator: Adobe Illustrator 25.2.3, SVG Export Plug-In . SVG Version: 6.00 Build 0)  -->
<svg version="1.1" id="Layer_2" xmlns="http://www.w3.org/2000/svg" xmlns:xlink="http://www.w3.org/1999/xlink" x="0px" y="0px"
	 viewBox="0 0 128 128" style="enable-background:new 0 0 128 128;" xml:space="preserve">
<path style="fill:#176CC7;" d="M69.09,4.24c-1.08,0.96-9.48,17.63-9.48,17.63l-6.25,25.21l24.32-2.23c0,0,20.23-37.62,20.64-38.49
	c0.73-1.58,1.12-2.23-1.67-2.23C93.86,4.12,70.1,3.34,69.09,4.24z"/>
<path style="fill:#CECDD2;" d="M81.68,43.29c-1.21-0.65-36.85-1.21-37.69,0c-0.76,1.1-0.33,6.87-0.04,7.56
	c0.52,1.2,12.03,6.43,12.03,6.43l-0.22,2.38c0,0,0.94,0.24,7.63,0.24s8.01-0.34,8.01-0.34l0.02-2.15c0,0,10.36-5.04,10.88-5.74
	C82.74,51.09,82.89,43.94,81.68,43.29z M71.07,52.41c0,0,0.33-1.47-0.36-1.81c-0.69-0.35-12.53-0.19-13.47-0.14
	c-0.94,0.05-0.94,1.73-0.94,1.73l-7.6-4.53v-0.74l28.3,0.2l0.05,0.84L71.07,52.41z"/>
<path style="fill:#FDFFFF;" d="M59.26,51.17c-0.94,0-1.48,0.98-1.48,2.67c0,1.58,0.54,2.91,1.73,2.81c0.98-0.08,1.32-1.58,1.23-2.91
	C60.65,52.16,60.45,51.17,59.26,51.17z"/>
<path style="fill:#CECDD2;" d="M28.97,91.89c0,23.96,22.05,34.13,36.46,33.7c16.79-0.5,34.51-13.24,33.36-36.1
	C97.7,67.83,79.33,58.2,63.55,58.31C45.21,58.45,28.97,70.96,28.97,91.89z"/>
<g>
	<path style="fill:#9B9B9D;" d="M64.53,121.13c-0.25,0-0.51,0-0.76-0.01c-7.5-0.25-14.91-3.41-20.33-8.66
		c-5.8-5.62-8.98-13.22-8.94-21.39c0.09-19.95,17.53-29.2,29.36-29.2c0.03,0,0.07,0,0.1,0h0c16.03,0.07,29.19,12.53,29.56,29.42
		c0.16,7.52-2.92,15.41-8.96,21.35C78.92,118.17,71.44,121.13,64.53,121.13z M63.84,65.19c-10.61,0-26.3,8.68-26.34,25.88
		c-0.03,12.86,9.93,26.08,26.52,26.64c6.32,0.2,12.83-2.22,18.09-7.39c5.46-5.37,8.53-12.29,8.42-18.99
		C90.27,76.8,78.39,65.24,63.97,65.17C63.95,65.17,63.87,65.19,63.84,65.19z"/>
</g>
<path style="fill:#FEFFFA;" d="M58.09,61.47c-0.69-0.95-7.76-0.68-15.37,5.87c-7.56,6.51-8.69,13.71-7.33,14.09
	c1.55,0.43,3.44-6.53,9.97-12.38C51.36,63.7,59.46,63.36,58.09,61.47z"/>
<path style="fill:#FEFFFA;" d="M87.88,87.72c-2.41,0.34,0.09,7.56-5.5,15.64c-4.85,7.01-10.35,9.55-9.71,11.09
	c0.86,2.06,9.67-3.07,13.75-11.43C90.11,95.46,89.67,87.47,87.88,87.72z"/>
<path style="fill:#2E9DF4;" d="M25.51,3.72C24.88,4.3,48.97,47.2,48.97,47.2s4.04,0.52,13.06,0.6s13.49-0.52,13.49-0.52
	S56.79,4.15,55.67,3.72C55.12,3.5,47.7,3.42,40.45,3.34C33.19,3.25,26.11,3.16,25.51,3.72z"/>
<path style="fill:#9B9B9D;" d="M56.85,86.35c1.04,0.01,1.97-1.4,2.83-2.26c1.83-1.84,3.75-3.3,5.94-1.32
	C71,87.66,60.2,92.62,56.1,99.4c-3.06,5.06-3.68,8.95-2.83,9.99s21.54,0.99,21.82,0.47c0.28-0.52,0.57-7.45,0.09-7.78
	s-10.65-0.14-10.65-0.14s0.85-1.98,4.34-5c3.83-3.31,6.9-7.86,6.08-13.24c-1.7-11.12-12.9-11.53-17.75-7.66
	C52.47,79.81,53.49,86.31,56.85,86.35z"/>
</svg>
